packages/ffe-icons/icons/open/400/sm/border_outer.svg

<svg xmlns="http://www.w3.org/2000/svg" height="20" viewBox="0 -960 960 960" width="20"><path d="M480.21-594q-15.21 0-25.71-10.29t-10.5-25.5q0-15.21 10.29-25.71t25.5-10.5q15.21 0 25.71 10.29t10.5 25.5q0 15.21-10.29 25.71t-25.5 10.5Zm-150 150q-15.21 0-25.71-10.29t-10.5-25.5q0-15.21 10.29-25.71t25.5-10.5q15.21 0 25.71 10.29t10.5 25.5q0 15.21-10.29 25.71t-25.5 10.5Zm150 0q-15.21 0-25.71-10.29t-10.5-25.5q0-15.21 10.29-25.71t25.5-10.5q15.21 0 25.71 10.29t10.5 25.5q0 15.21-10.29 25.71t-25.5 10.5Zm150 0q-15.21 0-25.71-10.29t-10.5-25.5q0-15.21 10.29-25.71t25.5-10.5q15.21 0 25.71 10.29t10.5 25.5q0 15.21-10.29 25.71t-25.5 10.5Zm-150 150q-15.21 0-25.71-10.29t-10.5-25.5q0-15.21 10.29-25.71t25.5-10.5q15.21 0 25.71 10.29t10.5 25.5q0 15.21-10.29 25.71t-25.5 10.5ZM216-216h528v-528H216v528Zm0 72q-29.7 0-50.85-21.15Q144-186.3 144-216v-528q0-29.7 21.15-50.85Q186.3-816 216-816h528q29.7 0 50.85 21.15Q816-773.7 816-744v528q0 29.7-21.15 50.85Q773.7-144 744-144H216Z"/></svg>

<svg xmlns="http://www.w3.org/2000/svg" height="20" viewBox="0 -960 960 960" width="20"><path d="M480.211-594Q465-594 454.5-604.289q-10.5-10.29-10.5-25.5Q444-645 454.289-655.5q10.29-10.5 25.5-10.5Q495-666 505.5-655.711q10.5 10.29 10.5 25.5Q516-615 505.711-604.5q-10.29 10.5-25.5 10.5Zm-150 150Q315-444 304.5-454.289q-10.5-10.29-10.5-25.5Q294-495 304.289-505.5q10.29-10.5 25.5-10.5Q345-516 355.5-505.711q10.5 10.29 10.5 25.5Q366-465 355.711-454.5q-10.29 10.5-25.5 10.5Zm150 0Q465-444 454.5-454.289q-10.5-10.29-10.5-25.5Q444-495 454.289-505.5q10.29-10.5 25.5-10.5Q495-516 505.5-505.711q10.5 10.29 10.5 25.5Q516-465 505.711-454.5q-10.29 10.5-25.5 10.5Zm150 0Q615-444 604.5-454.289q-10.5-10.29-10.5-25.5Q594-495 604.289-505.5q10.29-10.5 25.5-10.5Q645-516 655.5-505.711q10.5 10.29 10.5 25.5Q666-465 655.711-454.5q-10.29 10.5-25.5 10.5Zm-150 150Q465-294 454.5-304.289q-10.5-10.29-10.5-25.5Q444-345 454.289-355.5q10.29-10.5 25.5-10.5Q495-366 505.5-355.711q10.5 10.29 10.5 25.5Q516-315 505.711-304.5q-10.29 10.5-25.5 10.5ZM216-216h528v-528H216v528Zm0 72q-29.7 0-50.85-21.15Q144-186.3 144-216v-528q0-29.7 21.15-50.85Q186.3-816 216-816h528q29.7 0 50.85 21.15Q816-773.7 816-744v528q0 29.7-21.15 50.85Q773.7-144 744-144H216Z"/></svg>
